packages/calcite-ui-icons/icons/browser-join-32.svg

<?xml version="1.0" encoding="UTF-8"?><svg id="icons" xmlns="http://www.w3.org/2000/svg" viewBox="0 0 32 32"><defs><style>.cls-1{fill:none;}</style></defs><path d="M13.19336,26.5l-3.85352,3.85352-.70703-.70703,2.64648-2.64648H0v-1h11.2793l-2.64648-2.64648.70703-.70703,3.85352,3.85352ZM29,27V11H8v10.1582l-1,1v-11.1582H3v13h-1V5h28v23h-15.47852l1-1h13.47852ZM29,6H3v4h26v-4ZM27,7h-1v1h1v-1Z"/><rect class="cls-1" width="32" height="32"/></svg>

<svg xmlns="http://www.w3.org/2000/svg" viewBox="0 0 32 32"><path d="M13.193 26.5L9.34 30.354l-.707-.708L11.279 27H0v-1h11.28l-2.647-2.646.707-.708 3.853 3.854zM29 27V11H8v10.158l-1 1V11H3v13H2V5h28v23H14.521l1-1H29zm0-21H3v4h26V6zm-2 1h-1v1h1V7z"/><path fill="none" d="M0 0h32v32H0z"/></svg>
